Gurmukhi/0A35.svg

<svg enable-background="new 0 0 336 592" viewBox="0 0 336 592" xmlns="http://www.w3.org/2000/svg"><path d="m215.634918 243.71817c2.855484.107178 4.26442-.834503 4.260407-3.436508-.009995-6.497528.00885-12.995193.037918-19.492691.0112-2.502823-1.219544-3.648834-3.691376-3.599152-1.49852.030136-2.998581-.026519-4.49794-.026413-41.821228.002976-83.642792-.068985-125.463165.121292-4.667893.02121-7.079399-1.452758-8.255638-5.862304-.854157-3.202103-2.333771-6.232132-3.410881-9.381195-1.746628-5.106446-.683808-6.6017 4.799224-6.907547 1.329323-.074173 2.665131-.042053 3.997956-.041825 60.815719.010758 121.631698.104599 182.446731-.092681 5.931214-.019227 9.399048 1.545288 10.741181 7.477951.61792 2.731491 2.047271 5.2695 2.950744 7.948516 1.577698 4.678254.275971 6.617432-4.642852 6.680542-7.996369.102585-16.000702.213822-23.990281-.038757-4.289825-.13559-5.877029 1.188843-5.752517 5.677338.295623 10.655365.136795 21.324722.080261 31.987991-.037872 7.140289-5.013077 12.164185-12.144791 12.199738-29.15654.145324-58.313461.214111-87.470016.356506-5.213318.025482-10.237793 1.208954-15.062683 3.147827-7.331063 2.946014-11.633789 8.295014-11.922219 16.284607-.257957 7.14566 4.625115 13.776398 12.097512 16.788757 6.859359 2.765168 14.068329 4.117554 21.445236 4.156281 27.490921.144379 54.983093.289734 82.473129.134857 4.906906-.027618 7.373093 1.53537 8.29361 6.303101.65921 3.414276 1.927673 6.708435 2.87532 10.070007 1.737885 6.164581 1.012299 7.197235-5.278305 7.204956-23.159942.028534-46.319916.015625-69.479889.017456-7.804275.00061-9.025024 1.136414-9.712951 9.046692-1.444687 16.61203 6.373931 26.010925 23.03984 28.281464 11.798691 1.607482 23.617325.635345 35.423813.910369 6.32814.147431 12.663849.115204 18.993164.000306 2.669083-.048462 4.41658.73999 5.277146 3.430786 1.621597 5.070251 3.512634 10.055755 5.074676 15.143127.975159 3.175873.312683 5.949341-3.700439 5.893433-19.96016-.278076-40.020859 1.570007-59.843109-1.840302-15.633347-2.689605-29.245545-9.22583-37.788575-23.456817-6.367874-10.607575-7.560531-22.184418-5.568451-34.217743.242447-1.464478.469101-2.93158.744889-4.659394-4.678284-1.538208-9.323243-2.761138-13.728623-4.568206-16.367599-6.71399-29.229988-17.108857-32.86251-35.371888-3.5747-17.972259 2.767051-33.26831 20.525032-40.78189 9.513603-4.025315 19.560318-5.372132 29.757095-5.435975 22.825211-.142929 45.651916-.04573 68.932327-.052612z"/></svg>

<svg version="1.1" id="Layer_1" xmlns="http://www.w3.org/2000/svg" xmlns:xlink="http://www.w3.org/1999/xlink" x="0px" y="0px"
	 width="100%" viewBox="0 0 336 592" enable-background="new 0 0 336 592" xml:space="preserve">
<path fill="#000000" opacity="1.000000" stroke="none" 
	d="
M215.634918,243.718170 
	C218.490402,243.825348 219.899338,242.883667 219.895325,240.281662 
	C219.885330,233.784134 219.904175,227.286469 219.933243,220.788971 
	C219.944443,218.286148 218.713699,217.140137 216.241867,217.189819 
	C214.743347,217.219955 213.243286,217.163300 211.743927,217.163406 
	C169.922699,217.166382 128.101135,217.094421 86.280762,217.284698 
	C81.612869,217.305908 79.201363,215.831940 78.025124,211.422394 
	C77.170967,208.220291 75.691353,205.190262 74.614243,202.041199 
	C72.867615,196.934753 73.930435,195.439499 79.413467,195.133652 
	C80.742790,195.059479 82.078598,195.091599 83.411423,195.091827 
	C144.227142,195.102585 205.043121,195.196426 265.858154,194.999146 
	C271.789368,194.979919 275.257202,196.544434 276.599335,202.477097 
	C277.217255,205.208588 278.646606,207.746597 279.550079,210.425613 
	C281.127777,215.103867 279.826050,217.043045 274.907227,217.106155 
	C266.910858,217.208740 258.906525,217.319977 250.916946,217.067398 
	C246.627121,216.931808 245.039917,218.256241 245.164429,222.744736 
	C245.460052,233.400101 245.301224,244.069458 245.244690,254.732727 
	C245.206818,261.873016 240.231613,266.896912 233.099899,266.932465 
	C203.943359,267.077789 174.786438,267.146576 145.629883,267.288971 
	C140.416565,267.314453 135.392090,268.497925 130.567200,270.436798 
	C123.236137,273.382812 118.933411,278.731812 118.644981,286.721405 
	C118.387024,293.867065 123.270096,300.497803 130.742493,303.510162 
	C137.601852,306.275330 144.810822,307.627716 152.187729,307.666443 
	C179.678650,307.810822 207.170822,307.956177 234.660858,307.801300 
	C239.567764,307.773682 242.033951,309.336670 242.954468,314.104401 
	C243.613678,317.518677 244.882141,320.812836 245.829788,324.174408 
	C247.567673,330.338989 246.842087,331.371643 240.551483,331.379364 
	C217.391541,331.407898 194.231567,331.394989 171.071594,331.396820 
	C163.267319,331.397430 162.046570,332.533234 161.358643,340.443512 
	C159.913956,357.055542 167.732574,366.454437 184.398483,368.724976 
	C196.197174,370.332458 208.015808,369.360321 219.822296,369.635345 
	C226.150436,369.782776 232.486145,369.750549 238.815460,369.635651 
	C241.484543,369.587189 243.232040,370.375641 244.092606,373.066437 
	C245.714203,378.136688 247.605240,383.122192 249.167282,388.209564 
	C250.142441,391.385437 249.479965,394.158905 245.466843,394.102997 
	C225.506683,393.824921 205.445984,395.673004 185.623734,392.262695 
	C169.990387,389.573090 156.378189,383.036865 147.835159,368.805878 
	C141.467285,358.198303 140.274628,346.621460 142.266708,334.588135 
	C142.509155,333.123657 142.735809,331.656555 143.011597,329.928741 
	C138.333313,328.390533 133.688354,327.167603 129.282974,325.360535 
	C112.915375,318.646545 100.052986,308.251678 96.420464,289.988647 
	C92.845764,272.016388 99.187515,256.720337 116.945496,249.206757 
	C126.459099,245.181442 136.505814,243.834625 146.702591,243.770782 
	C169.527802,243.627853 192.354507,243.725052 215.634918,243.718170 
z"/>
</svg>
